X: 1665
T: Annika's Butterfly
R: barndance
M: 4/4
K: Eminor
|:E3G BGEG BG E2|A3c ecAc ec A2|B3^d f3^d B4|
Begf edcB AGFE ^D2 B,2|E3G BGEG BG E2|A3c ecAc ec A2|
B3^d f2 a2 gfga|b2 ag g2 fe ^d2 B2|1 (e4e) BGF:|2 e4 e2 (3^def||
|:g3a gdBc dcBc|dcBc d2 B2 G4|A3c e2 a2 c'bab|
c'bab c'2 a2 f2 d2|c3e a3b c'b a2|d3g baga ba g2|
e2 c'b a3g fgab|agfg a2 f2 d3B|c3e a3b c'b a2|
d3g baga ba g2|e2 c'b a3g fgab|agfg a4 g4:|

